images/4004.svg

<?xml version="1.0" encoding="UTF-8"?>
<svg xmlns="http://www.w3.org/2000/svg" xmlns:xlink="http://www.w3.org/1999/xlink" width="300pt" height="300pt" viewBox="0 0 300 300" version="1.1">
<defs>
<g>
<symbol overflow="visible" id="glyph0-0">
<path style="stroke:none;" d="M 0.59375 2.125 L 0.59375 -8.46875 L 6.59375 -8.46875 L 6.59375 2.125 Z M 1.265625 1.453125 L 5.9375 1.453125 L 5.9375 -7.78125 L 1.265625 -7.78125 Z M 1.265625 1.453125 "/>
</symbol>
<symbol overflow="visible" id="glyph0-1">
<path style="stroke:none;" d="M 4.734375 -7.953125 C 3.867188 -7.953125 3.179688 -7.628906 2.671875 -6.984375 C 2.171875 -6.347656 1.921875 -5.472656 1.921875 -4.359375 C 1.921875 -3.265625 2.171875 -2.394531 2.671875 -1.75 C 3.179688 -1.113281 3.867188 -0.796875 4.734375 -0.796875 C 5.585938 -0.796875 6.265625 -1.113281 6.765625 -1.75 C 7.273438 -2.394531 7.53125 -3.265625 7.53125 -4.359375 C 7.53125 -5.472656 7.273438 -6.347656 6.765625 -6.984375 C 6.265625 -7.628906 5.585938 -7.953125 4.734375 -7.953125 Z M 4.734375 -8.90625 C 5.953125 -8.90625 6.925781 -8.492188 7.65625 -7.671875 C 8.394531 -6.847656 8.765625 -5.742188 8.765625 -4.359375 C 8.765625 -2.984375 8.394531 -1.882812 7.65625 -1.0625 C 6.925781 -0.238281 5.953125 0.171875 4.734375 0.171875 C 3.503906 0.171875 2.519531 -0.238281 1.78125 -1.0625 C 1.039062 -1.882812 0.671875 -2.984375 0.671875 -4.359375 C 0.671875 -5.742188 1.039062 -6.847656 1.78125 -7.671875 C 2.519531 -8.492188 3.503906 -8.90625 4.734375 -8.90625 Z M 4.734375 -8.90625 "/>
</symbol>
<symbol overflow="visible" id="glyph0-2">
<path style="stroke:none;" d="M 6.421875 -8.46875 L 6.421875 -7.3125 C 5.972656 -7.519531 5.546875 -7.675781 5.140625 -7.78125 C 4.742188 -7.894531 4.363281 -7.953125 4 -7.953125 C 3.351562 -7.953125 2.851562 -7.828125 2.5 -7.578125 C 2.15625 -7.328125 1.984375 -6.96875 1.984375 -6.5 C 1.984375 -6.113281 2.097656 -5.820312 2.328125 -5.625 C 2.554688 -5.425781 3 -5.269531 3.65625 -5.15625 L 4.359375 -5 C 5.242188 -4.832031 5.894531 -4.535156 6.3125 -4.109375 C 6.738281 -3.691406 6.953125 -3.128906 6.953125 -2.421875 C 6.953125 -1.566406 6.664062 -0.921875 6.09375 -0.484375 C 5.53125 -0.046875 4.695312 0.171875 3.59375 0.171875 C 3.1875 0.171875 2.75 0.125 2.28125 0.03125 C 1.8125 -0.0625 1.328125 -0.203125 0.828125 -0.390625 L 0.828125 -1.609375 C 1.304688 -1.335938 1.773438 -1.132812 2.234375 -1 C 2.703125 -0.863281 3.15625 -0.796875 3.59375 -0.796875 C 4.269531 -0.796875 4.789062 -0.925781 5.15625 -1.1875 C 5.53125 -1.457031 5.71875 -1.835938 5.71875 -2.328125 C 5.71875 -2.753906 5.582031 -3.085938 5.3125 -3.328125 C 5.050781 -3.578125 4.617188 -3.757812 4.015625 -3.875 L 3.296875 -4.015625 C 2.410156 -4.191406 1.769531 -4.46875 1.375 -4.84375 C 0.988281 -5.21875 0.796875 -5.738281 0.796875 -6.40625 C 0.796875 -7.1875 1.066406 -7.796875 1.609375 -8.234375 C 2.148438 -8.679688 2.898438 -8.90625 3.859375 -8.90625 C 4.273438 -8.90625 4.691406 -8.867188 5.109375 -8.796875 C 5.535156 -8.722656 5.972656 -8.613281 6.421875 -8.46875 Z M 6.421875 -8.46875 "/>
</symbol>
<symbol overflow="visible" id="glyph0-3">
<path style="stroke:none;" d="M 2.359375 -7.78125 L 2.359375 -4.484375 L 3.84375 -4.484375 C 4.394531 -4.484375 4.820312 -4.625 5.125 -4.90625 C 5.425781 -5.195312 5.578125 -5.609375 5.578125 -6.140625 C 5.578125 -6.660156 5.425781 -7.0625 5.125 -7.34375 C 4.820312 -7.632812 4.394531 -7.78125 3.84375 -7.78125 Z M 1.171875 -8.75 L 3.84375 -8.75 C 4.832031 -8.75 5.578125 -8.523438 6.078125 -8.078125 C 6.578125 -7.640625 6.828125 -6.992188 6.828125 -6.140625 C 6.828125 -5.273438 6.578125 -4.617188 6.078125 -4.171875 C 5.578125 -3.734375 4.832031 -3.515625 3.84375 -3.515625 L 2.359375 -3.515625 L 2.359375 0 L 1.171875 0 Z M 1.171875 -8.75 "/>
</symbol>
</g>
</defs>
<g id="surface30429">
<rect x="0" y="0" width="300" height="300" style="fill:rgb(100%,100%,100%);fill-opacity:1;stroke:none;"/>
<path style="fill:none;stroke-width:1.2;stroke-linecap:butt;stroke-linejoin:miter;stroke:rgb(0%,0%,0%);stroke-opacity:1;stroke-miterlimit:10;" d="M 35.25 165.699219 L 62.8125 155.144531 "/>
<path style="fill:none;stroke-width:1.2;stroke-linecap:butt;stroke-linejoin:miter;stroke:rgb(0%,0%,0%);stroke-opacity:1;stroke-miterlimit:10;" d="M 62.8125 155.144531 L 74.273438 164.441406 "/>
<path style="fill:none;stroke-width:1.2;stroke-linecap:butt;stroke-linejoin:miter;stroke:rgb(100%,0%,0%);stroke-opacity:1;stroke-miterlimit:10;" d="M 74.273438 164.441406 L 85.734375 173.738281 "/>
<path style="fill:none;stroke-width:1.2;stroke-linecap:butt;stroke-linejoin:miter;stroke:rgb(100%,0%,0%);stroke-opacity:1;stroke-miterlimit:10;" d="M 85.734375 173.738281 L 99.515625 168.460938 "/>
<path style="fill:none;stroke-width:1.2;stroke-linecap:butt;stroke-linejoin:miter;stroke:rgb(0%,0%,0%);stroke-opacity:1;stroke-miterlimit:10;" d="M 99.515625 168.460938 L 113.296875 163.183594 "/>
<path style=" stroke:none;fill-rule:nonzero;fill:rgb(100%,100%,100%);fill-opacity:1;" d="M 80.734375 166.738281 L 90.734375 166.738281 L 90.734375 180.738281 L 80.734375 180.738281 Z M 80.734375 166.738281 "/>
<g style="fill:rgb(100%,0%,0%);fill-opacity:1;">
  <use xlink:href="#glyph0-1" x="80.734375" y="177.876953"/>
</g>
<path style="fill:none;stroke-width:1.2;stroke-linecap:butt;stroke-linejoin:miter;stroke:rgb(0%,0%,0%);stroke-opacity:1;stroke-miterlimit:10;" d="M 116.726562 163.730469 L 119.046875 149.15625 "/>
<path style="fill:none;stroke-width:1.2;stroke-linecap:butt;stroke-linejoin:miter;stroke:rgb(100%,0%,0%);stroke-opacity:1;stroke-miterlimit:10;" d="M 119.046875 149.15625 L 121.367188 134.582031 "/>
<path style="fill:none;stroke-width:1.2;stroke-linecap:butt;stroke-linejoin:miter;stroke:rgb(0%,0%,0%);stroke-opacity:1;stroke-miterlimit:10;" d="M 109.867188 162.636719 L 112.1875 148.0625 "/>
<path style="fill:none;stroke-width:1.2;stroke-linecap:butt;stroke-linejoin:miter;stroke:rgb(100%,0%,0%);stroke-opacity:1;stroke-miterlimit:10;" d="M 112.1875 148.0625 L 114.507812 133.488281 "/>
<path style="fill:none;stroke-width:1.2;stroke-linecap:butt;stroke-linejoin:miter;stroke:rgb(0%,0%,0%);stroke-opacity:1;stroke-miterlimit:10;" d="M 113.296875 163.183594 L 136.21875 181.777344 "/>
<path style=" stroke:none;fill-rule:nonzero;fill:rgb(100%,100%,100%);fill-opacity:1;" d="M 112.9375 127.035156 L 122.9375 127.035156 L 122.9375 141.035156 L 112.9375 141.035156 Z M 112.9375 127.035156 "/>
<g style="fill:rgb(100%,0%,0%);fill-opacity:1;">
  <use xlink:href="#glyph0-1" x="112.9375" y="138.173828"/>
</g>
<path style="fill:none;stroke-width:1.2;stroke-linecap:butt;stroke-linejoin:miter;stroke:rgb(0%,0%,0%);stroke-opacity:1;stroke-miterlimit:10;" d="M 136.21875 181.777344 L 163.78125 171.222656 "/>
<path style="fill:none;stroke-width:1.2;stroke-linecap:butt;stroke-linejoin:miter;stroke:rgb(0%,0%,0%);stroke-opacity:1;stroke-miterlimit:10;" d="M 163.78125 171.222656 L 186.703125 189.816406 "/>
<path style="fill:none;stroke-width:1.2;stroke-linecap:butt;stroke-linejoin:miter;stroke:rgb(0%,0%,0%);stroke-opacity:1;stroke-miterlimit:10;" d="M 163.78125 171.222656 L 166.101562 156.648438 "/>
<path style="fill:none;stroke-width:1.2;stroke-linecap:butt;stroke-linejoin:miter;stroke:rgb(80%,80%,0%);stroke-opacity:1;stroke-miterlimit:10;" d="M 166.101562 156.648438 L 168.421875 142.074219 "/>
<path style="fill:none;stroke-width:1.2;stroke-linecap:butt;stroke-linejoin:miter;stroke:rgb(0%,0%,0%);stroke-opacity:1;stroke-miterlimit:10;" d="M 183.273438 189.269531 L 180.953125 203.84375 "/>
<path style="fill:none;stroke-width:1.2;stroke-linecap:butt;stroke-linejoin:miter;stroke:rgb(100%,0%,0%);stroke-opacity:1;stroke-miterlimit:10;" d="M 180.953125 203.84375 L 178.632812 218.417969 "/>
<path style="fill:none;stroke-width:1.2;stroke-linecap:butt;stroke-linejoin:miter;stroke:rgb(0%,0%,0%);stroke-opacity:1;stroke-miterlimit:10;" d="M 190.132812 190.363281 L 187.8125 204.933594 "/>
<path style="fill:none;stroke-width:1.2;stroke-linecap:butt;stroke-linejoin:miter;stroke:rgb(100%,0%,0%);stroke-opacity:1;stroke-miterlimit:10;" d="M 187.8125 204.933594 L 185.492188 219.507812 "/>
<path style="fill:none;stroke-width:1.2;stroke-linecap:butt;stroke-linejoin:miter;stroke:rgb(0%,0%,0%);stroke-opacity:1;stroke-miterlimit:10;" d="M 186.703125 189.816406 L 200.484375 184.539062 "/>
<path style="fill:none;stroke-width:1.2;stroke-linecap:butt;stroke-linejoin:miter;stroke:rgb(100%,0%,0%);stroke-opacity:1;stroke-miterlimit:10;" d="M 200.484375 184.539062 L 214.265625 179.261719 "/>
<path style=" stroke:none;fill-rule:nonzero;fill:rgb(100%,100%,100%);fill-opacity:1;" d="M 177.0625 211.960938 L 187.0625 211.960938 L 187.0625 225.960938 L 177.0625 225.960938 Z M 177.0625 211.960938 "/>
<g style="fill:rgb(100%,0%,0%);fill-opacity:1;">
  <use xlink:href="#glyph0-1" x="177.0625" y="223.099609"/>
</g>
<path style="fill:none;stroke-width:1.2;stroke-linecap:butt;stroke-linejoin:miter;stroke:rgb(100%,0%,0%);stroke-opacity:1;stroke-miterlimit:10;" d="M 214.265625 179.261719 L 225.726562 188.558594 "/>
<path style="fill:none;stroke-width:1.2;stroke-linecap:butt;stroke-linejoin:miter;stroke:rgb(0%,0%,0%);stroke-opacity:1;stroke-miterlimit:10;" d="M 225.726562 188.558594 L 237.1875 197.855469 "/>
<path style=" stroke:none;fill-rule:nonzero;fill:rgb(100%,100%,100%);fill-opacity:1;" d="M 209.265625 172.261719 L 219.265625 172.261719 L 219.265625 186.261719 L 209.265625 186.261719 Z M 209.265625 172.261719 "/>
<g style="fill:rgb(100%,0%,0%);fill-opacity:1;">
  <use xlink:href="#glyph0-1" x="209.265625" y="183.400391"/>
</g>
<path style="fill:none;stroke-width:1.2;stroke-linecap:butt;stroke-linejoin:miter;stroke:rgb(0%,0%,0%);stroke-opacity:1;stroke-miterlimit:10;" d="M 237.1875 197.855469 L 264.75 187.300781 "/>
<path style="fill:none;stroke-width:1.2;stroke-linecap:butt;stroke-linejoin:miter;stroke:rgb(80%,80%,0%);stroke-opacity:1;stroke-miterlimit:10;" d="M 168.421875 142.074219 L 182.203125 136.796875 "/>
<path style="fill:none;stroke-width:1.2;stroke-linecap:butt;stroke-linejoin:miter;stroke:rgb(100%,50%,0%);stroke-opacity:1;stroke-miterlimit:10;" d="M 182.203125 136.796875 L 195.984375 131.519531 "/>
<path style=" stroke:none;fill-rule:nonzero;fill:rgb(100%,100%,100%);fill-opacity:1;" d="M 164.421875 135.074219 L 172.421875 135.074219 L 172.421875 149.074219 L 164.421875 149.074219 Z M 164.421875 135.074219 "/>
<g style="fill:rgb(80%,80%,0%);fill-opacity:1;">
  <use xlink:href="#glyph0-2" x="164.421875" y="146.212891"/>
</g>
<path style="fill:none;stroke-width:1.2;stroke-linecap:butt;stroke-linejoin:miter;stroke:rgb(100%,50%,0%);stroke-opacity:1;stroke-miterlimit:10;" d="M 197.226562 134.765625 L 211.007812 129.488281 "/>
<path style="fill:none;stroke-width:1.2;stroke-linecap:butt;stroke-linejoin:miter;stroke:rgb(80%,80%,0%);stroke-opacity:1;stroke-miterlimit:10;" d="M 211.007812 129.488281 L 224.789062 124.210938 "/>
<path style="fill:none;stroke-width:1.2;stroke-linecap:butt;stroke-linejoin:miter;stroke:rgb(100%,50%,0%);stroke-opacity:1;stroke-miterlimit:10;" d="M 194.742188 128.277344 L 208.527344 123 "/>
<path style="fill:none;stroke-width:1.2;stroke-linecap:butt;stroke-linejoin:miter;stroke:rgb(80%,80%,0%);stroke-opacity:1;stroke-miterlimit:10;" d="M 208.527344 123 L 222.308594 117.726562 "/>
<path style="fill:none;stroke-width:1.2;stroke-linecap:butt;stroke-linejoin:miter;stroke:rgb(100%,50%,0%);stroke-opacity:1;stroke-miterlimit:10;" d="M 195.984375 131.519531 L 190.707031 117.738281 "/>
<path style="fill:none;stroke-width:1.2;stroke-linecap:butt;stroke-linejoin:miter;stroke:rgb(100%,0%,0%);stroke-opacity:1;stroke-miterlimit:10;" d="M 190.707031 117.738281 L 185.433594 103.957031 "/>
<path style="fill:none;stroke-width:1.2;stroke-linecap:butt;stroke-linejoin:miter;stroke:rgb(100%,50%,0%);stroke-opacity:1;stroke-miterlimit:10;" d="M 195.984375 131.519531 L 201.261719 145.304688 "/>
<path style="fill:none;stroke-width:1.2;stroke-linecap:butt;stroke-linejoin:miter;stroke:rgb(100%,0%,0%);stroke-opacity:1;stroke-miterlimit:10;" d="M 201.261719 145.304688 L 206.539062 159.085938 "/>
<path style=" stroke:none;fill-rule:nonzero;fill:rgb(100%,100%,100%);fill-opacity:1;" d="M 191.984375 124.519531 L 199.984375 124.519531 L 199.984375 138.519531 L 191.984375 138.519531 Z M 191.984375 124.519531 "/>
<g style="fill:rgb(100%,50%,0%);fill-opacity:1;">
  <use xlink:href="#glyph0-3" x="191.984375" y="135.658203"/>
</g>
<path style=" stroke:none;fill-rule:nonzero;fill:rgb(100%,100%,100%);fill-opacity:1;" d="M 219.546875 113.96875 L 227.546875 113.96875 L 227.546875 127.96875 L 219.546875 127.96875 Z M 219.546875 113.96875 "/>
<g style="fill:rgb(80%,80%,0%);fill-opacity:1;">
  <use xlink:href="#glyph0-2" x="219.546875" y="125.107422"/>
</g>
<path style="fill:none;stroke-width:1.2;stroke-linecap:butt;stroke-linejoin:miter;stroke:rgb(100%,0%,0%);stroke-opacity:1;stroke-miterlimit:10;" d="M 185.433594 103.957031 L 194.726562 92.496094 "/>
<path style="fill:none;stroke-width:1.2;stroke-linecap:butt;stroke-linejoin:miter;stroke:rgb(0%,0%,0%);stroke-opacity:1;stroke-miterlimit:10;" d="M 194.726562 92.496094 L 204.023438 81.039062 "/>
<path style=" stroke:none;fill-rule:nonzero;fill:rgb(100%,100%,100%);fill-opacity:1;" d="M 180.433594 96.957031 L 190.433594 96.957031 L 190.433594 110.957031 L 180.433594 110.957031 Z M 180.433594 96.957031 "/>
<g style="fill:rgb(100%,0%,0%);fill-opacity:1;">
  <use xlink:href="#glyph0-1" x="180.433594" y="108.095703"/>
</g>
<path style="fill:none;stroke-width:1.2;stroke-linecap:butt;stroke-linejoin:miter;stroke:rgb(100%,0%,0%);stroke-opacity:1;stroke-miterlimit:10;" d="M 206.539062 159.085938 L 221.113281 161.40625 "/>
<path style="fill:none;stroke-width:1.2;stroke-linecap:butt;stroke-linejoin:miter;stroke:rgb(0%,0%,0%);stroke-opacity:1;stroke-miterlimit:10;" d="M 221.113281 161.40625 L 235.6875 163.726562 "/>
<path style=" stroke:none;fill-rule:nonzero;fill:rgb(100%,100%,100%);fill-opacity:1;" d="M 201.539062 152.085938 L 211.539062 152.085938 L 211.539062 166.085938 L 201.539062 166.085938 Z M 201.539062 152.085938 "/>
<g style="fill:rgb(100%,0%,0%);fill-opacity:1;">
  <use xlink:href="#glyph0-1" x="201.539062" y="163.224609"/>
</g>
</g>
</svg>

<svg xmlns="http://www.w3.org/2000/svg" xmlns:xlink="http://www.w3.org/1999/xlink" width="300pt" height="300pt" viewBox="0 0 300 300"><defs><symbol overflow="visible"><path d="M.594 2.125V-8.47h6V2.126zm.672-.672h4.671V-7.78h-4.67zm0 0"/></symbol><symbol overflow="visible" id="a"><path d="M4.734-7.953c-.867 0-1.554.324-2.062.97-.5.635-.75 1.51-.75 2.624 0 1.094.25 1.965.75 2.61.508.637 1.195.953 2.062.953.852 0 1.532-.316 2.032-.953.507-.645.765-1.516.765-2.61 0-1.113-.257-1.988-.764-2.624-.5-.645-1.18-.97-2.032-.97zm0-.953c1.22 0 2.192.414 2.922 1.234.74.824 1.11 1.93 1.11 3.313 0 1.376-.37 2.477-1.11 3.298C6.926-.24 5.953.17 4.734.17c-1.23 0-2.214-.41-2.953-1.234C1.04-1.882.673-2.984.673-4.36c0-1.382.367-2.488 1.11-3.312.738-.82 1.722-1.234 2.952-1.234zm0 0"/></symbol><symbol overflow="visible" id="b"><path d="M6.422-8.47v1.158c-.45-.208-.875-.364-1.28-.47-.4-.113-.78-.17-1.142-.17-.648 0-1.148.124-1.5.374-.344.25-.516.61-.516 1.078 0 .387.114.68.344.875.227.2.672.355 1.328.47L4.36-5c.882.168 1.535.465 1.952.89.426.42.64.98.64 1.688 0 .856-.288 1.5-.858 1.938-.563.437-1.4.656-2.5.656-.406 0-.844-.047-1.313-.14C1.814-.064 1.33-.204.83-.392v-1.22c.477.274.945.477 1.406.61.47.137.922.203 1.36.203.676 0 1.195-.13 1.562-.39.375-.27.563-.65.563-1.14 0-.427-.138-.76-.407-1-.262-.25-.696-.43-1.297-.548l-.72-.14c-.886-.176-1.526-.454-1.92-.83-.388-.374-.58-.893-.58-1.56 0-.782.27-1.392.813-1.83.538-.445 1.288-.67 2.25-.67.413 0 .83.038 1.25.108.425.074.863.184 1.312.328zm0 0"/></symbol><symbol overflow="visible" id="c"><path d="M2.36-7.78v3.296h1.484c.55 0 .976-.14 1.28-.422.302-.29.454-.703.454-1.235 0-.52-.152-.923-.453-1.204-.305-.29-.73-.437-1.28-.437zM1.17-8.75h2.672c.988 0 1.734.227 2.234.672.5.437.75 1.086.75 1.937 0 .867-.25 1.523-.75 1.968-.5.438-1.246.656-2.234.656H2.36V0H1.17zm0 0"/></symbol></defs><g><path fill="#fff" d="M0 0h300v300H0z"/><path d="M35.25 165.7l27.563-10.555M62.813 155.145l11.46 9.296" stroke-width="1.2" stroke="#000" stroke-miterlimit="10" fill="none"/><path d="M74.273 164.44l11.46 9.298M85.734 173.738l13.782-5.277" stroke-width="1.2" stroke="#f00" stroke-miterlimit="10" fill="none"/><path d="M99.516 168.46l13.78-5.276" stroke-width="1.2" stroke="#000" stroke-miterlimit="10" fill="none"/><path d="M80.734 166.738h10v14h-10zm0 0" fill="#fff"/><use xlink:href="#a" x="80.734" y="177.877" fill="#f00"/><path d="M116.727 163.73l2.32-14.574" stroke-width="1.2" stroke="#000" stroke-miterlimit="10" fill="none"/><path d="M119.047 149.156l2.32-14.574" stroke-width="1.2" stroke="#f00" stroke-miterlimit="10" fill="none"/><path d="M109.867 162.637l2.32-14.575" stroke-width="1.2" stroke="#000" stroke-miterlimit="10" fill="none"/><path d="M112.188 148.063l2.32-14.575" stroke-width="1.2" stroke="#f00" stroke-miterlimit="10" fill="none"/><path d="M113.297 163.184l22.922 18.593" stroke-width="1.2" stroke="#000" stroke-miterlimit="10" fill="none"/><path d="M112.938 127.035h10v14h-10zm0 0" fill="#fff"/><use xlink:href="#a" x="112.938" y="138.174" fill="#f00"/><path d="M136.22 181.777l27.56-10.554M163.78 171.223l22.923 18.593M163.78 171.223l2.322-14.575" stroke-width="1.2" stroke="#000" stroke-miterlimit="10" fill="none"/><path d="M166.102 156.648l2.32-14.574" stroke-width="1.2" stroke="#cc0" stroke-miterlimit="10" fill="none"/><path d="M183.273 189.27l-2.32 14.574" stroke-width="1.2" stroke="#000" stroke-miterlimit="10" fill="none"/><path d="M180.953 203.844l-2.32 14.574" stroke-width="1.2" stroke="#f00" stroke-miterlimit="10" fill="none"/><path d="M190.133 190.363l-2.32 14.57" stroke-width="1.2" stroke="#000" stroke-miterlimit="10" fill="none"/><path d="M187.813 204.934l-2.32 14.574" stroke-width="1.2" stroke="#f00" stroke-miterlimit="10" fill="none"/><path d="M186.703 189.816l13.78-5.277" stroke-width="1.2" stroke="#000" stroke-miterlimit="10" fill="none"/><path d="M200.484 184.54l13.782-5.278" stroke-width="1.2" stroke="#f00" stroke-miterlimit="10" fill="none"/><path d="M177.063 211.96h10v14h-10zm0 0" fill="#fff"/><use xlink:href="#a" x="177.063" y="223.1" fill="#f00"/><path d="M214.266 179.262l11.46 9.297" stroke-width="1.2" stroke="#f00" stroke-miterlimit="10" fill="none"/><path d="M225.727 188.56l11.46 9.295" stroke-width="1.2" stroke="#000" stroke-miterlimit="10" fill="none"/><path d="M209.266 172.262h10v14h-10zm0 0" fill="#fff"/><use xlink:href="#a" x="209.266" y="183.4" fill="#f00"/><path d="M237.188 197.855L264.75 187.3" stroke-width="1.2" stroke="#000" stroke-miterlimit="10" fill="none"/><path d="M168.422 142.074l13.78-5.277" stroke-width="1.2" stroke="#cc0" stroke-miterlimit="10" fill="none"/><path d="M182.203 136.797l13.78-5.277" stroke-width="1.2" stroke="#ff7f00" stroke-miterlimit="10" fill="none"/><path d="M164.422 135.074h8v14h-8zm0 0" fill="#fff"/><use xlink:href="#b" x="164.422" y="146.213" fill="#cc0"/><path d="M197.227 134.766l13.78-5.278" stroke-width="1.2" stroke="#ff7f00" stroke-miterlimit="10" fill="none"/><path d="M211.008 129.488l13.78-5.277" stroke-width="1.2" stroke="#cc0" stroke-miterlimit="10" fill="none"/><path d="M194.742 128.277L208.527 123" stroke-width="1.2" stroke="#ff7f00" stroke-miterlimit="10" fill="none"/><path d="M208.527 123l13.782-5.273" stroke-width="1.2" stroke="#cc0" stroke-miterlimit="10" fill="none"/><path d="M195.984 131.52l-5.277-13.782" stroke-width="1.2" stroke="#ff7f00" stroke-miterlimit="10" fill="none"/><path d="M190.707 117.738l-5.273-13.78" stroke-width="1.2" stroke="#f00" stroke-miterlimit="10" fill="none"/><path d="M195.984 131.52l5.278 13.785" stroke-width="1.2" stroke="#ff7f00" stroke-miterlimit="10" fill="none"/><path d="M201.262 145.305l5.277 13.78" stroke-width="1.2" stroke="#f00" stroke-miterlimit="10" fill="none"/><path d="M191.984 124.52h8v14h-8zm0 0" fill="#fff"/><use xlink:href="#c" x="191.984" y="135.658" fill="#ff7f00"/><path d="M219.547 113.97h8v14h-8zm0 0" fill="#fff"/><use xlink:href="#b" x="219.547" y="125.107" fill="#cc0"/><path d="M185.434 103.957l9.293-11.46" stroke-width="1.2" stroke="#f00" stroke-miterlimit="10" fill="none"/><path d="M194.727 92.496l9.296-11.457" stroke-width="1.2" stroke="#000" stroke-miterlimit="10" fill="none"/><path d="M180.434 96.957h10v14h-10zm0 0" fill="#fff"/><use xlink:href="#a" x="180.434" y="108.096" fill="#f00"/><path d="M206.54 159.086l14.573 2.32" stroke-width="1.2" stroke="#f00" stroke-miterlimit="10" fill="none"/><path d="M221.113 161.406l14.575 2.32" stroke-width="1.2" stroke="#000" stroke-miterlimit="10" fill="none"/><path d="M201.54 152.086h10v14h-10zm0 0" fill="#fff"/><use xlink:href="#a" x="201.539" y="163.225" fill="#f00"/></g></svg>
